Adwaita++-Dark/actions/22/kdenlive-locate-clip.svg

<svg fill="none" height="22" viewBox="0 0 22 22" width="22" xmlns="http://www.w3.org/2000/svg">
  <g fill="#e6ddff">
    <path d="m4 3s-1 0-1 1v11s0 1 1 1h1 1v-1.5h-1-.5v-10h4l2 2h5v.5 1h1.5v-1-1c0-1-1-1-1-1h-5l-2-2z"/>
    <path clip-rule="evenodd" d="m9.5 10.5v7h7v-7zm-1.5-1.5c-.55228 0-1 .44772-1 1v8c0 .5523.44772 1 1 1h10c.5523 0 1-.4477 1-1v-8c0-.55228-.4477-1-1-1z" fill-rule="evenodd"/>
    <path d="m11 12v4h.4042.0418c.078.0004.1551-.0155.223-.05l3.1219-1.6c.1386-.0688.2091-.2094.2091-.35s-.0705-.2812-.2091-.35l-3.1219-1.6c-.0679-.0345-.145-.0505-.223-.05h-.0418z"/>
  </g>
</svg>

<svg xmlns="http://www.w3.org/2000/svg" fill="none" width="22" height="22" viewBox="0 0 22 22">
 <path fill="#E6DDFF" d="M4 3C4 3 3 3 3 4V15C3 15 3 16 4 16H5H6V14.5H5H4.5V4.5H8.5L10.5 6.5H15.5V7V8H17V7V6C17 5 16 5 16 5H11L9 3H4Z"/>
 <path fill="#E6DDFF" fill-rule="evenodd" d="M9.5 10.5V17.5H16.5V10.5H9.5ZM8 9C7.44772 9 7 9.44772 7 10V18C7 18.5523 7.44772 19 8 19H18C18.5523 19 19 18.5523 19 18V10C19 9.44772 18.5523 9 18 9H8Z" clip-rule="evenodd"/>
 <path fill="#E6DDFF" d="M11 12V16H11.4042H11.446C11.524 16.0004 11.6011 15.9845 11.669 15.95L14.7909 14.35C14.9295 14.2812 15 14.1406 15 14C15 13.8594 14.9295 13.7188 14.7909 13.65L11.669 12.05C11.6011 12.0155 11.524 11.9995 11.446 12H11.4042H11Z"/>
</svg>
